<?xml version="1.0" encoding="UTF-8"?>
<map version="1.10" tiledversion="1.11.2" orientation="orthogonal" renderorder="right-down" width="16" height="16" tilewidth="16" tileheight="16" infinite="0" nextlayerid="5" nextobjectid="1">
 <editorsettings>
  <export target="rogue.csv" format="csv"/>
 </editorsettings>
 <tileset firstgid="1" source="sewers3.tsx"/>
 <tileset firstgid="161" source="water0.tsx"/>
 <layer id="4" name="water" width="16" height="16" visible="0">
  <data encoding="csv">
162,163,162,163,162,163,162,163,162,163,162,163,162,163,162,163,
164,165,164,165,164,165,164,165,164,165,164,165,164,165,164,165,
162,163,162,163,162,163,162,163,162,163,162,163,162,163,162,163,
164,165,164,165,164,165,164,165,164,165,164,165,164,165,164,165,
162,163,162,163,162,163,162,163,162,163,162,163,162,163,162,163,
164,165,164,165,164,165,164,165,164,165,164,165,164,165,164,165,
162,163,162,163,162,163,162,163,162,163,162,163,162,163,162,163,
164,165,164,165,164,165,164,165,164,165,164,165,164,165,164,165,
162,163,162,163,162,163,162,163,162,163,162,163,162,163,162,163,
164,165,164,165,164,165,164,165,164,165,164,165,164,165,164,165,
162,163,162,163,162,163,162,163,162,163,162,163,162,163,162,163,
164,165,164,165,164,165,164,165,164,165,164,165,164,165,164,165,
162,163,162,163,162,163,162,163,162,163,162,163,162,163,162,163,
164,165,164,165,164,165,164,165,164,165,164,165,164,165,164,165,
162,163,162,163,162,163,162,163,162,163,162,163,162,163,162,163,
164,165,164,165,164,165,164,165,164,165,164,165,164,165,164,165
</data>
 </layer>
 <layer id="1" name="base" width="16" height="16">
  <data encoding="csv">
87,2,94,19,19,19,19,19,19,19,19,19,19,19,19,19,
87,74,59,59,59,59,94,19,19,19,19,19,19,19,19,19,
87,2,2,2,2,2,63,66,68,66,88,19,19,19,19,19,
87,2,2,2,2,2,2,32,1,30,94,19,19,19,19,19,
87,2,13,2,2,2,96,35,27,30,94,19,19,19,19,19,
86,2,2,2,2,2,93,38,2,2,94,19,19,19,19,19,
19,19,19,19,19,19,86,2,2,38,91,19,19,19,19,19,
19,19,19,19,19,19,68,68,74,68,68,19,19,19,19,19,
19,19,19,19,19,19,1,1,2,1,1,19,19,19,19,19,
19,19,19,19,19,19,1,1,2,1,1,19,19,19,19,19,
19,19,19,19,19,19,27,29,2,1,25,19,19,19,19,19,
19,19,19,19,19,19,2,2,2,35,29,19,19,19,19,19,
19,19,19,19,19,19,19,19,19,19,19,19,19,19,19,19,
19,19,19,19,19,19,19,19,19,19,19,19,19,19,19,19,
19,19,19,19,19,19,19,19,19,19,19,19,19,19,19,19,
19,19,19,19,19,19,19,19,19,19,19,19,19,19,19,19
</data>
 </layer>
 <layer id="3" name="over" width="16" height="16" visible="0">
  <data encoding="csv">
1,129,1,1,1,1,1,1,1,1,1,1,1,1,1,1,
1,73,1,1,1,1,1,1,1,1,1,1,1,1,1,1,
1,1,1,1,1,1,132,1,1,1,1,1,1,1,1,1,
1,1,1,1,1,1,120,1,1,1,1,1,1,1,1,1,
1,1,1,1,1,1,1,1,1,1,1,1,1,1,1,1,
1,105,105,105,105,105,1,1,1,1,1,1,1,1,1,1,
19,19,19,19,19,19,86,105,129,105,1,1,1,1,1,1,
1,1,1,1,1,87,1,1,73,1,1,94,1,1,1,1,
1,1,1,1,1,87,146,146,1,143,143,94,1,1,1,1,
1,1,1,1,1,87,146,146,1,143,143,94,1,1,1,1,
1,1,1,1,1,87,146,146,1,143,143,94,1,1,1,1,
1,1,1,1,1,87,1,1,1,1,1,94,1,1,1,1,
1,1,1,1,1,1,1,1,1,1,1,1,1,1,1,1,
1,1,1,1,1,1,1,1,1,1,1,1,1,1,1,1,
1,1,1,1,1,1,1,1,1,1,1,1,1,1,1,1,
1,1,1,1,1,1,1,1,1,1,1,1,1,1,1,1
</data>
 </layer>
</map>
