<?xml version="1.0" encoding="UTF-8"?>
<map version="1.10" tiledversion="1.11.2" orientation="orthogonal" renderorder="right-down" width="16" height="16" tilewidth="16" tileheight="16" infinite="0" nextlayerid="2" nextobjectid="1">
 <tileset firstgid="1" source="sewers_16.tsx"/>
 <layer id="1" name="Tile Layer 1" width="16" height="16">
  <data encoding="csv">
42,42,42,42,42,42,42,42,42,42,42,42,42,42,42,42,
42,3,3,3,3,3,3,3,3,3,3,3,3,3,3,42,
42,3,2,2,2,2,2,2,2,2,2,2,2,2,3,42,
42,3,2,4,4,4,4,4,2,4,4,4,4,2,3,42,
42,3,2,81,4,4,4,4,4,4,4,4,4,2,3,42,
42,3,2,81,81,81,81,81,81,81,4,4,4,2,3,42,
42,3,2,81,81,81,81,81,81,81,81,81,4,2,3,42,
42,3,2,57,57,57,81,81,81,5,5,81,81,2,3,42,
42,3,2,57,57,57,81,81,81,5,5,5,5,2,3,42,
42,3,2,57,57,57,57,81,81,5,5,5,5,2,3,42,
42,3,2,57,57,57,57,57,81,5,5,5,5,2,3,42,
42,3,2,57,57,57,57,57,57,57,57,57,57,2,3,42,
42,3,2,2,2,2,2,2,2,2,2,2,14,2,3,42,
42,3,2,2,2,2,2,2,2,2,2,2,2,2,3,42,
42,3,3,3,3,3,3,3,3,3,3,3,3,3,3,42,
42,42,42,42,42,42,42,42,42,42,42,42,42,42,42,42
</data>
 </layer>
</map>
