<?xml version="1.0" encoding="UTF-8"?>
<map version="1.10" tiledversion="1.11.2" orientation="orthogonal" renderorder="right-down" width="10" height="10" tilewidth="16" tileheight="16" infinite="0" nextlayerid="4" nextobjectid="1">
 <tileset firstgid="1" source="sewers_16.tsx"/>
 <group id="2" name="Group Layer 1">
  <layer id="3" name="Floor" width="10" height="10">
   <data encoding="csv">
2,2,2,2,2,2,2,2,2,2,
2,2,2,2,2,2,2,2,2,2,
2,2,2,2,2,2,2,2,2,2,
2,2,2,2,2,2,2,2,2,2,
2,2,42,42,42,42,42,42,2,2,
2,2,62,62,62,62,62,62,2,2,
2,2,53,53,53,53,53,53,2,2,
2,2,2,2,2,2,53,2,2,2,
2,2,2,2,2,2,2,2,2,2,
2,2,2,2,2,2,2,2,2,2
</data>
  </layer>
  <layer id="1" name="Walls" width="10" height="10" visible="0">
   <data encoding="csv">
57,0,0,0,0,0,0,0,0,57,
0,0,0,0,0,0,0,0,0,0,
0,0,0,0,88,88,0,0,0,42,
0,0,0,0,88,88,0,0,0,42,
0,0,0,0,0,0,0,0,0,43,
0,0,0,0,0,0,0,0,0,43,
0,0,0,0,0,0,0,0,0,0,
0,0,0,0,0,0,0,0,0,0,
0,0,0,0,13,0,0,15,0,0,
57,0,0,0,0,0,0,0,0,57
</data>
  </layer>
 </group>
</map>
