<?xml version="1.0" encoding="UTF-8"?>
<map version="1.10" tiledversion="1.11.2" orientation="orthogonal" renderorder="right-down" width="16" height="16" tilewidth="16" tileheight="16" infinite="0" nextlayerid="5" nextobjectid="1">
 <editorsettings>
  <export target="untitled..tmx" format="tmx"/>
 </editorsettings>
 <tileset firstgid="1" source="sewers3.tsx"/>
 <tileset firstgid="161" source="water0.tsx"/>
 <layer id="1" name="base" width="16" height="16" visible="0">
  <data encoding="csv">
87,2,94,0,0,0,0,0,0,0,0,0,0,0,0,0,
87,74,59,59,59,59,94,19,0,0,0,0,0,0,0,0,
87,2,2,2,2,2,63,66,68,66,88,0,0,0,0,0,
87,2,2,2,2,2,2,32,1,30,94,0,0,0,0,0,
87,2,13,2,2,2,96,35,27,30,94,0,0,0,0,0,
86,2,2,2,2,2,93,2,2,2,94,0,0,0,0,0,
0,0,0,0,0,0,86,2,2,2,91,0,0,0,0,0,
0,0,0,0,0,0,68,68,74,68,68,0,0,0,0,0,
0,0,0,0,0,0,0,0,0,0,0,0,0,0,0,0,
0,0,0,0,0,0,0,0,0,0,0,0,0,0,0,0,
0,0,0,0,0,0,0,0,0,0,0,0,0,0,0,0,
0,0,0,0,0,0,0,0,0,0,0,0,0,0,0,0,
0,0,0,0,0,0,0,0,0,0,0,0,0,0,0,0,
0,0,0,0,0,0,0,0,0,0,0,0,0,0,0,0,
0,0,0,0,0,0,0,0,0,0,0,0,0,0,0,0,
0,0,0,0,0,0,0,0,0,0,0,0,0,0,0,0
</data>
 </layer>
 <layer id="4" name="water" width="16" height="16">
  <data encoding="csv">
162,163,162,163,162,163,162,163,162,163,162,163,162,163,162,163,
164,165,164,165,164,165,164,165,164,165,164,165,164,165,164,165,
162,163,162,163,162,163,162,163,162,163,162,163,162,163,162,163,
164,165,164,165,164,165,164,165,164,165,164,165,164,165,164,165,
162,163,162,163,162,163,162,163,162,163,162,163,162,163,162,163,
164,165,164,165,164,165,164,165,164,165,164,165,164,165,164,165,
162,163,162,163,162,163,162,163,162,163,162,163,162,163,162,163,
164,165,164,165,164,165,164,165,164,165,164,165,164,165,164,165,
162,163,162,163,162,163,162,163,162,163,162,163,162,163,162,163,
164,165,164,165,164,165,164,165,164,165,164,165,164,165,164,165,
162,163,162,163,162,163,162,163,162,163,162,163,162,163,162,163,
164,165,164,165,164,165,164,165,164,165,164,165,164,165,164,165,
162,163,162,163,162,163,162,163,162,163,162,163,162,163,162,163,
164,165,164,165,164,165,164,165,164,165,164,165,164,165,164,165,
162,163,162,163,162,163,162,163,162,163,162,163,162,163,162,163,
164,165,164,165,164,165,164,165,164,165,164,165,164,165,164,165
</data>
 </layer>
 <layer id="3" name="over" width="16" height="16" visible="0">
  <data encoding="csv">
0,129,0,19,19,19,19,0,0,0,0,0,0,0,0,0,
0,73,0,0,0,0,1,0,0,0,0,0,0,0,0,0,
0,1,0,0,0,0,132,0,0,0,0,0,0,0,0,0,
0,1,1,1,1,1,120,0,0,0,0,0,0,0,0,0,
0,1,1,1,1,1,1,0,0,0,0,0,0,0,0,0,
1,105,105,105,105,105,0,0,0,0,0,0,0,0,0,0,
19,19,19,19,19,19,19,0,0,0,0,0,0,0,0,0,
0,0,0,0,0,0,0,0,0,0,0,0,0,0,0,0,
0,0,0,0,0,0,0,0,0,0,0,0,0,0,0,0,
0,0,0,0,0,0,0,0,0,0,0,0,0,0,0,0,
0,0,0,0,0,0,0,0,0,0,0,0,0,0,0,0,
0,0,0,0,0,0,0,0,0,0,0,0,0,0,0,0,
0,0,0,0,0,0,0,0,0,0,0,0,0,0,0,0,
0,0,0,0,0,0,0,0,0,0,0,0,0,0,0,0,
0,0,0,0,0,0,0,0,0,0,0,0,0,0,0,0,
0,0,0,0,0,0,0,0,0,0,0,0,0,0,0,0
</data>
 </layer>
</map>
