<?xml version="1.0" encoding="UTF-8"?>
<map version="1.10" tiledversion="1.11.2" orientation="orthogonal" renderorder="right-down" width="16" height="16" tilewidth="16" tileheight="16" infinite="0" nextlayerid="4" nextobjectid="1">
 <editorsettings>
  <export target="untitled.csv" format="csv"/>
 </editorsettings>
 <tileset firstgid="1" source="sewers3.tsx"/>
 <layer id="1" name="base" width="16" height="16">
  <data encoding="csv">
87,2,94,1,1,1,1,1,1,1,1,1,1,1,1,1,
87,74,59,59,59,59,94,1,1,1,1,1,1,1,1,1,
87,2,2,2,2,2,63,1,1,1,1,1,1,1,1,1,
87,2,2,2,2,2,2,1,1,1,1,1,1,1,1,1,
87,2,13,2,2,2,94,1,1,1,1,1,1,1,1,1,
86,2,2,2,2,2,91,1,1,1,1,1,1,1,1,1,
1,1,1,1,1,1,1,1,1,1,1,1,1,1,1,1,
1,1,1,1,1,1,1,1,1,1,1,1,1,1,1,1,
1,1,1,1,1,1,1,1,1,1,1,1,1,1,1,1,
1,1,1,1,1,1,1,1,1,1,1,1,1,1,1,1,
1,1,1,1,1,1,1,1,1,1,1,1,1,1,1,1,
1,1,1,1,1,1,1,1,1,1,1,1,1,1,1,1,
1,1,1,1,1,1,1,1,1,1,1,1,1,1,1,1,
1,1,1,1,1,1,1,1,1,1,1,1,1,1,1,1,
1,1,1,1,1,1,1,1,1,1,1,1,1,1,1,1,
1,1,1,1,1,1,1,1,1,1,1,1,1,1,1,1
</data>
 </layer>
 <layer id="3" name="over" width="16" height="16" visible="0">
  <data encoding="csv">
0,129,0,19,19,19,19,0,0,0,0,0,0,0,0,0,
0,73,0,0,0,0,1,0,0,0,0,0,0,0,0,0,
0,1,0,0,0,0,132,0,0,0,0,0,0,0,0,0,
0,1,1,1,1,1,120,0,0,0,0,0,0,0,0,0,
0,1,1,1,1,1,1,0,0,0,0,0,0,0,0,0,
1,105,105,105,105,105,0,0,0,0,0,0,0,0,0,0,
19,19,19,19,19,19,19,0,0,0,0,0,0,0,0,0,
0,0,0,0,0,0,0,0,0,0,0,0,0,0,0,0,
0,0,0,0,0,0,0,0,0,0,0,0,0,0,0,0,
0,0,0,0,0,0,0,0,0,0,0,0,0,0,0,0,
0,0,0,0,0,0,0,0,0,0,0,0,0,0,0,0,
0,0,0,0,0,0,0,0,0,0,0,0,0,0,0,0,
0,0,0,0,0,0,0,0,0,0,0,0,0,0,0,0,
0,0,0,0,0,0,0,0,0,0,0,0,0,0,0,0,
0,0,0,0,0,0,0,0,0,0,0,0,0,0,0,0,
0,0,0,0,0,0,0,0,0,0,0,0,0,0,0,0
</data>
 </layer>
</map>
